X:1
T:Title
%%score ( 1 2 ) 3
L:1/8
Q:1/4=83
M:6/8
K:Eb
V:1 treble nm="Grand Piano, Soprano"
V:2 treble 
V:3 bass nm="Choir Pad, Lystra, John Courtnay"
V:1
 B/A<[EG][DF]/ E[Ee][Ed] | [Ec] [EB]2- [EB] [Ge]2 | [EG][DF]>[DG] [DF][EF][EG] | %3
w: By~John~Courtnay,~before~1902 * * * * * *|||
 [E=A] [DB]2- [DB]2- [DB]/ z/ | B/A<[EG][DF]/ E[Ee][Ed] | [Ec] [EB]2- [EB] [Ge]2 | %6
w: |||
 d/c<[FB][DF]/ [DF]F[Fd] | [Ec] [DB]2- [DB]2- [DB]/ z/ | [DA][DA]>[DA] [DA][Dc][EB] | %9
w: |||
 [FA] [EG]2- [EG] [EG]2 | [EG][DF]>[DG] [DF][EF][EG] | [E=A] [DB]2- [DB]2- [DB]/ z/ | %12
w: |||
 [FB][Fc][FB] [FB][Fd][FB] | [FB] [Ee]2- [Ee] [EB]2 | [GB][GB]>[Gc] [GB][FB][Gc] | %15
w: |||
 [Ad] [Ge]2- [Ge]3- | [Ge]3 z3 |] %17
w: ||
V:2
 .E3 z3 | x6 | x6 | x6 | .F3 z3 | x6 | .G3 z3 | x6 | x6 | x6 | x6 | x6 | x6 | x6 | x6 | x6 | x6 |] %17
V:3
 [E,A,][E,B,]>[E,A,] [E,G,][E,C][E,B,] | [E,A,] [E,G,]2- [E,G,] [E,B,]2 | %2
 [C,C][F,D]>[F,B,] [F,B,][F,=A,][F,B,] | [F,C] [B,,B,]2- [B,,B,]2- [B,,B,]/ z/ | %4
 [D,B,][E,B,]>[E,A,] [E,G,][E,C][E,B,] | [E,A,] [E,G,]2- [E,G,] [E,B,]2 | %6
 [E,C][F,D]>[F,B,] [F,B,][F,=A,]F, | [F,=A,] [B,,B,]2- [B,,B,]2- [B,,B,]/ z/ | %8
 [B,,F,][B,,F,]>[B,,F,] [B,,F,][B,,F,][C,B,] | [D,B,] [E,B,]2- [E,B,] [E,B,]2 | %10
 [E,B,][F,B,]>[F,B,] [F,B,][F,=A,][F,B,] | [F,C] B,2- B,2- B,/ z/ | %12
 [B,D][B,E][B,D] [B,D][B,D][A,D] | [A,D] [G,B,]2- [G,B,] [G,E]2 | %14
 [E,E][K:treble][B,E]>[B,E] [B,E][B,D][B,E] | [B,F][K:bass] [E,E]2- [E,E]3- | [E,E]3 z3 |] %17

